public/images/globe.svg

<?xml version="1.0" encoding="UTF-8"?>
<svg width="25px" height="24px" viewBox="0 0 25 24" version="1.1" xmlns="http://www.w3.org/2000/svg" xmlns:xlink="http://www.w3.org/1999/xlink">
    <!-- Generator: Sketch 56.3 (81716) - https://sketch.com -->
    <title>atoms / icon / 32px / globe</title>
    <desc>Created with Sketch.</desc>
    <g id="buttons" stroke="none" stroke-width="1" fill="none" fill-rule="evenodd">
        <g id="atoms-/-button-/-lightMode-/-medium-/-misc-/-language" transform="translate(-8.000000, -8.000000)">
            <g id="atoms-/-icon-/-32px-/-globe-/-lightMode" transform="translate(4.000000, 4.000000)">
                <g id="atoms-/-spacing-/-boundingBox">
                    <rect id="boundingBox" x="0" y="0" width="32" height="32"></rect>
                </g>
                <g id="icon" stroke-width="1" fill-rule="evenodd" transform="translate(4.000000, 4.000000)">
                    <g id="World" fill="#6F6E98" fill-rule="nonzero">
                        <path d="M11.0001709,0 C8.06147115,0 5.29883991,1.14610141 3.22130011,3.22761374 C1.14341777,5.30912607 -0.000342392037,8.07624039 7.67647066e-08,11.0197308 C7.67647066e-08,13.9632212 1.14410286,16.7107763 3.22130011,18.7922886 C5.29883991,20.8734578 8.0611286,22 10.9994858,22 L11.0011985,22 C17.0663131,22 22.0003416,17.0755385 22.0000001,10.9998284 C22.0003416,8.05633803 20.8558964,5.29883175 18.7783566,3.21731942 C16.7011593,1.13649338 13.9385281,0 11.0001709,0 Z M18.7725333,4.22925148 C18.4762312,4.65440706 17.6777572,5.59290627 16.0479246,6.31110695 C15.1251065,3.61021946 13.593242,1.75998627 12.6687111,0.822516494 C14.7897542,1.16600377 16.7450052,2.16112177 18.2939969,3.71247641 C18.4608167,3.8795876 18.6187303,4.05287539 18.7725333,4.22925148 L18.7725333,4.22925148 Z M11.5311168,21.3391044 C11.4684309,21.3421927 11.4054025,21.3418495 11.3423741,21.3439084 L11.3423741,14.7998066 C13.0338648,14.8334347 14.3677379,15.1086363 15.3974303,15.4713397 C14.1974926,18.964547 11.9216189,21.007284 11.5311168,21.3391044 L11.5311168,21.3391044 Z M6.60188383,15.4709965 C7.65007374,15.1004009 8.98154896,14.8324053 10.6572826,14.7994634 L10.6572826,21.3442516 C10.5942542,21.3421927 10.5308833,21.3421927 10.4681974,21.3387612 C10.0766676,21.0062546 7.80147895,18.9631744 6.60188383,15.4709965 Z M10.4681974,0.700014038 C10.5308833,0.69692574 10.5942542,0.696582596 10.6572826,0.694523732 L10.6572826,7.2389687 C8.96579185,7.20534057 7.63191882,6.93013897 6.60222638,6.56743562 C7.80182149,3.07560089 10.0759825,1.03286385 10.4681974,0.700014038 Z M15.3977729,6.56777877 C14.3495829,6.93837443 13.0181077,7.20637 11.3423741,7.23931184 L11.3423741,0.694523732 C11.4054025,0.696582596 11.4687734,0.696582596 11.5314593,0.700014038 C11.9233316,1.03252071 14.1981777,3.07594404 15.3977729,6.56777877 Z M11.3423741,7.92525697 C13.09107,7.89300142 14.4927671,7.61745668 15.6053556,7.2297038 C15.9269975,8.3511687 16.1034829,9.50938094 16.1304782,10.6759004 L11.3423741,10.6759004 L11.3423741,7.92525697 L11.3423741,7.92525697 Z M10.6572826,7.92525697 L10.6572826,10.6762435 L5.86883599,10.6762435 C5.8996651,9.41724767 6.0959438,8.26634224 6.39395858,7.23004695 C7.50688963,7.61745668 8.90858672,7.89300142 10.6572826,7.92525697 Z M5.18374455,10.6762435 L0.693312693,10.6762435 C0.762849474,8.51889632 1.48870386,6.47684557 2.7777034,4.77999782 C3.19697937,5.33589132 4.09170879,6.2702728 5.74106644,6.97817915 C5.39669786,8.1815953 5.20936579,9.42462212 5.18374455,10.6762435 L5.18374455,10.6762435 Z M5.18374455,11.3625318 C5.21457366,12.7203531 5.42249892,13.9553289 5.74106644,15.0605961 C4.09170879,15.7685025 3.19663682,16.702884 2.7777034,17.2587775 C1.4890464,15.5619297 0.762849474,13.519879 0.693312693,11.3625318 L5.18374455,11.3625318 Z M5.86883599,11.3625318 L10.6572826,11.3625318 L10.6572826,14.1135183 C8.90858672,14.1457739 7.50688963,14.4213186 6.39430113,14.8090715 C6.07254021,13.6875053 5.89593986,12.529179 5.86883599,11.3625318 L5.86883599,11.3625318 Z M11.3423741,14.1135183 L11.3423741,11.3625318 L16.1308207,11.3625318 C16.1038519,12.5290535 15.927366,13.6872691 15.6056981,14.8087283 C14.4927671,14.4213186 13.09107,14.1457739 11.3423741,14.1135183 L11.3423741,14.1135183 Z M16.8159121,11.3625318 L21.306344,11.3625318 C21.2384826,13.496125 20.5088626,15.5555593 19.2188704,17.2546597 C18.7978817,16.69808 17.9034948,15.7667868 16.2582477,15.0605961 C16.6029056,13.8572332 16.7903563,12.6141833 16.8159121,11.3625318 L16.8159121,11.3625318 Z M16.8159121,10.6762435 C16.7904601,9.42460766 16.6031247,8.18155909 16.2585903,6.97817915 C17.9079479,6.2702728 18.8030199,5.33589132 19.2219533,4.77999782 C20.5106103,6.47684557 21.2368072,8.51889632 21.3066865,10.6765867 L16.8159121,10.6765867 L16.8159121,10.6762435 Z M9.33060305,0.822516494 C8.40607214,1.75998627 6.87455023,3.6105626 5.95138951,6.31179324 C5.50873579,6.12018062 5.08469082,5.88803026 4.68465543,5.61829894 C3.87933044,5.07029776 3.43402101,4.52401229 3.22849357,4.2278789 C3.38195406,4.0521891 3.53952509,3.87924446 3.70600231,3.71281955 C5.25465151,2.16112177 7.20990249,1.16634692 9.33060305,0.822516494 L9.33060305,0.822516494 Z M3.22712339,17.8095238 C3.52342544,17.3847114 4.32189951,16.445869 5.95173205,15.7276683 C6.87489277,18.4285558 8.40641469,20.278789 9.33094559,21.2166019 C7.21024503,20.8731147 5.25465151,19.8779967 3.70565976,18.326642 C3.54038717,18.1597098 3.38078425,17.987239 3.22712339,17.8095238 L3.22712339,17.8095238 Z M11.0011985,21.6568559 L11.0011985,21.6956312 L11.0011985,21.6568559 Z M12.6700813,21.2152294 C13.5946122,20.2774164 15.125449,18.4271833 16.0482672,15.7273252 C16.4909209,15.9189378 16.9149659,16.1510882 17.3150013,16.4208195 C18.1165582,16.9660755 18.5615251,17.5103021 18.7680802,17.8067787 C17.2235415,19.5784318 15.0874264,20.819241 12.6700813,21.2152294 L12.6700813,21.2152294 Z" id="Shape"></path>
                    </g>
                    <g id="Chat,-Bubble,-Talk,-Message,-Communication,-Comment" transform="translate(19.500000, 18.500000) scale(-1, 1) translate(-19.500000, -18.500000) translate(14.000000, 13.000000)" fill-rule="nonzero">
                        <path d="M1.26926071,0 L5.50001692,0 L9.73077314,0 C10.5769244,0.0238277735 11,0.458226414 11,1.37467924 L11,5.95694338 C11,6.87339621 10.5769244,7.31604292 9.73077314,7.31604292 L8.4636955,7.34720232 L8.45692629,11 L5.49997462,7.34720232 L2.74998308,7.34720232 L1.2692184,7.31604292 C0.423109467,7.31604292 0,6.87339621 0,5.95694338 L0,1.37431266 C0,0.458226414 0.423109467,0 1.26926071,0 Z" id="Path" fill="#FFFFFF"></path>
                        <path d="M0.409737743,0.439609895 C0.120705986,0.750798838 0,1.19719168 0,1.69054207 L0,5.92095184 C0,6.41455605 0.122196407,6.8610335 0.4128069,7.16858429 C0.703417471,7.47621969 1.11533793,7.59991687 1.57142857,7.59991687 L2.9387556,7.62783758 L5.32199006,7.62783758 L7.9507571,10.8568248 C8.05878674,10.9886604 8.23127626,11.0348093 8.38404343,10.9727488 C8.53681061,10.9106883 8.63801203,10.7533545 8.6382571,10.5775331 L8.64438567,7.61793842 L9.42857143,7.59991687 C9.88467857,7.59991687 10.296583,7.47621969 10.5871928,7.16858429 C10.8778034,6.8610335 11,6.41455605 11,5.92095184 L11,1.69054207 C11,1.19702246 10.8777358,0.753421692 10.5887273,0.446209334 C10.2997196,0.139081585 9.89247836,0.0127615487 9.43931371,1.52529297e-05 C9.43573364,1.52529297e-05 9.43215307,1.52529297e-05 9.428573,1.52529297e-05 L5.5,1.52529297e-05 L1.57143014,1.52529297e-05 C1.11309526,-0.00162184451 0.6987695,0.128420952 0.409737743,0.439609895 Z M1.57142857,0.844460111 L5.5,0.844460111 L9.41782914,0.844460111 C9.75037879,0.853767012 9.93242329,0.939052073 10.0362727,1.04938116 C10.1401214,1.15979486 10.2142857,1.33806432 10.2142857,1.69054207 L10.2142857,5.92095184 C10.2142857,6.27351419 10.1400514,6.45719858 10.0378072,6.56541247 C9.93555986,6.67371096 9.75817857,6.75383492 9.42857143,6.75383492 C9.42550201,6.75379618 9.42243228,6.75379618 9.41936286,6.75383492 L8.24232593,6.78175562 C8.02897011,6.78716439 7.85863879,6.97498466 7.85867657,7.2047966 L7.85404086,9.45554382 L5.79464286,6.92567416 C5.72015149,6.83442451 5.61282575,6.7820628 5.5,6.78192484 L2.94949773,6.78192484 L1.57910154,6.75400413 C1.57654279,6.75397722 1.57398386,6.75397722 1.57142511,6.75400413 C1.24184076,6.75400413 1.06444211,6.67362635 0.962189643,6.56558168 C0.859940557,6.45719858 0.785714286,6.27351419 0.785714286,5.92095184 L0.785714286,1.69054207 C0.785714286,1.33823354 0.861424929,1.14964187 0.965262257,1.03778984 C1.06909943,0.926022411 1.24404759,0.844460111 1.57142857,0.844460111 Z" id="Shape" fill="#6F6E98"></path>
                    </g>
                </g>
            </g>
        </g>
    </g>
</svg>

<svg xmlns="http://www.w3.org/2000/svg" width="25" height="24">
    <g fill="none" fill-rule="evenodd">
        <path d="M-4-4h32v32H-4z"/>
        <g fill-rule="nonzero">
            <path fill="#6F6E98" d="M11 0a10.918 10.918 0 0 0-7.779 3.228A10.955 10.955 0 0 0 0 11.02c0 2.943 1.144 5.69 3.221 7.772C5.3 20.873 8.061 22 11 22h.002c6.065 0 11-4.924 10.999-11 0-2.944-1.144-5.701-3.222-7.783A10.91 10.91 0 0 0 11 0zm7.773 4.23c-.297.424-1.095 1.363-2.725 2.081a14.683 14.683 0 0 0-3.38-5.488 10.23 10.23 0 0 1 6.105 3.406zM11.53 21.34l-.189.004V14.8c1.692.033 3.026.309 4.055.671-1.2 3.494-3.475 5.536-3.866 5.868zm-4.93-5.869c1.05-.37 2.38-.639 4.056-.672v6.545c-.063-.002-.126-.002-.189-.005-.391-.333-2.667-2.376-3.866-5.868zM10.469.7c.063-.003.126-.003.19-.005v6.544c-1.692-.034-3.026-.309-4.056-.672 1.2-3.491 3.474-5.534 3.866-5.867zm4.93 5.868c-1.048.37-2.38.638-4.056.671V.695c.063.002.127.002.19.005.391.333 2.666 2.376 3.866 5.868zm-4.056 1.357c1.75-.032 3.15-.308 4.263-.695.322 1.121.498 2.28.525 3.446h-4.788v-2.75zm-.685 0v2.751H5.87c.03-1.259.227-2.41.525-3.446 1.113.387 2.515.663 4.263.695zm-5.473 2.751H.694c.069-2.157.795-4.2 2.084-5.896.419.556 1.314 1.49 2.963 2.198a14.522 14.522 0 0 0-.557 3.698zm0 .687c.03 1.357.238 2.592.557 3.698-1.65.708-2.544 1.642-2.963 2.198a10.25 10.25 0 0 1-2.085-5.896h4.49zm.685 0h4.788v2.75c-1.748.033-3.15.308-4.263.696a13.648 13.648 0 0 1-.525-3.446zm5.473 2.75v-2.75h4.789a13.643 13.643 0 0 1-.525 3.446c-1.113-.388-2.515-.663-4.264-.695zm5.474-2.75h4.49a10.285 10.285 0 0 1-2.087 5.892c-.421-.557-1.316-1.488-2.96-2.194.344-1.204.531-2.447.557-3.698zm0-.687a14.507 14.507 0 0 0-.557-3.698c1.649-.708 2.544-1.642 2.963-2.198a10.253 10.253 0 0 1 2.085 5.897h-4.491zM9.33.823a14.689 14.689 0 0 0-3.38 5.489 7.829 7.829 0 0 1-1.266-.694c-.806-.548-1.251-1.094-1.457-1.39A10.23 10.23 0 0 1 9.33.823zM3.227 17.81c.296-.425 1.095-1.364 2.725-2.082a14.693 14.693 0 0 0 3.379 5.489 10.232 10.232 0 0 1-6.104-3.407zm7.774 3.847v.039-.04zm1.67-.442a14.692 14.692 0 0 0 3.377-5.488c.443.192.867.424 1.267.694.802.545 1.247 1.09 1.453 1.386a10.305 10.305 0 0 1-6.098 3.408z"/>
            <path fill="#FFF" d="M23.73 13h-8.46c-.847.024-1.27.458-1.27 1.375v4.582c0 .916.423 1.359 1.27 1.359l1.266.031.007 3.653 2.957-3.653h2.75l1.48-.031c.847 0 1.27-.443 1.27-1.36v-4.582c0-.916-.423-1.374-1.27-1.374z"/>
            <path fill="#6F6E98" d="M24.59 13.44c.29.31.41.757.41 1.25v4.231c0 .494-.122.94-.413 1.248-.29.307-.702.43-1.158.43l-1.368.029h-2.383l-2.629 3.229a.374.374 0 0 1-.433.116.423.423 0 0 1-.254-.395l-.006-2.96-.785-.018c-.456 0-.868-.124-1.158-.431-.29-.308-.413-.754-.413-1.248v-4.23c0-.494.122-.938.411-1.245.29-.307.697-.433 1.15-.446H23.429c.458-.002.872.128 1.161.44zm-1.161.404H15.582c-.332.01-.514.095-.618.205-.104.11-.178.29-.178.642v4.23c0 .353.074.536.176.644.102.109.28.189.61.189h.009l1.177.028c.213.005.383.193.383.423l.005 2.25 2.06-2.53a.381.381 0 0 1 .294-.143h2.55l1.37-.028h.009c.33 0 .507-.08.609-.188.102-.109.176-.292.176-.645v-4.23c0-.353-.075-.541-.18-.653-.103-.112-.278-.194-.605-.194z"/>
        </g>
    </g>
</svg>
